X:1
T:Title
%%score 1 2
L:1/8
Q:1/4=90
M:6/8
K:Bb
V:1 treble nm="Grand Piano, Soprano"
V:2 bass nm="Choir Pad, Have You Heard?"
V:1
 [DF]2 [DB] [Ge]2 [Fd] | [Fd]2 [Ec] [DB]3 | [FA]2 [GB] [Ac]2 [FA] | [=EG]2 [EA] F3 | %4
w: By~Samuel~Alman * * *||||
 [DF]2 [FB] [Ge]2 [Fd] | [Fd]2 [Ec] [DB]3 | [FA]2 [EG] [DF]2 [Fd] | [Ec]3 [DB]2 [DB] | %8
w: ||||
 [Fd]2 [DB] [Fd]2 [DB] | [DB][Ec][Fd] [Ge]2 [Ge] | [Fd]2 [DB] [DF]2 [Fd] | [Ec]3 [DB]3- | %12
w: ||||
 [DB]3 z3 |] %13
w: |
V:2
 [B,,B,]2 [B,,B,] [B,,B,]2 [B,,B,] | [F,A,]2 [F,A,] [B,,B,]3 | [F,C]2 [F,C] [F,C]2 [F,C] | %3
 [C,B,]2 [C,B,] [F,A,]3 | [B,,B,]2 [B,,B,] [B,,B,]2 [B,,B,] | [F,A,]2 [F,A,] [B,,B,]3 | %6
 [E,B,]2 [E,B,] [F,B,]2 [F,B,] | [F,A,]3 [B,,B,]2 [B,,B,] | [B,,B,]2 [B,,B,] [B,,B,]2 [B,,B,] | %9
 [B,,B,]2 [B,,B,] [E,B,]2 [E,B,] | [F,B,]2 [F,D] [F,D]2 [F,B,] | [F,A,]3 [B,,F,]3- | [B,,F,]3 z3 |] %13

